assets/images/clock.svg

<svg width="20" height="20" viewBox="0 0 20 20" xmlns="http://www.w3.org/2000/svg">
<path fill-rule="evenodd" clip-rule="evenodd" d="M10 19C14.9706 19 19 14.9706 19 10C19 5.02944 14.9706 1 10 1C5.02944 1 1 5.02944 1 10C1 14.9706 5.02944 19 10 19ZM11 5V10L13.25 12.25C13.6642 12.6642 13.6642 13.3358 13.25 13.75C12.8358 14.1642 12.1642 14.1642 11.75 13.75L9 11V5C9 4.44772 9.44771 4 10 4C10.5523 4 11 4.44772 11 5Z" />
</svg>

<?xml version="1.0" encoding="UTF-8"?>
<svg id="Layer_1" xmlns="http://www.w3.org/2000/svg" version="1.1" viewBox="0 0 20 20">
  <!-- Generator: Adobe Illustrator 30.0.0, SVG Export Plug-In . SVG Version: 2.1.1 Build 123)  -->
  <defs>
    <style>
      .st0 {
        fill-rule: evenodd;
      }
    </style>
  </defs>
  <path class="st0" d="M10,19c4.971,0,9-4.029,9-9S14.971,1,10,1,1,5.029,1,10s4.029,9,9,9ZM11,5v5l2.25,2.25c.414.414.414,1.086,0,1.5s-1.086.414-1.5,0l-2.75-2.75v-6c0-.552.448-1,1-1s1,.448,1,1Z"/>
</svg>
